art/dp/systems_sel/colecovision.svg

<svg enable-background="new 0 0 3840 1220.2" viewBox="0 0 3840 1220.2" xmlns="http://www.w3.org/2000/svg"><g fill="#999"><path d="m1129.3 369.5v-91.9h-219.9v91.9z"/><path d="m3539.3 370.8v-91.9h-219.9v91.9z"/><path d="m2598.8 940.2v-91.9h-219.9v91.9z"/></g><g fill="#fff"><path d="m2626.1 762.2h-274.6c-32.5 0-58.8 26.3-58.8 58.8v146.5c0 32.5 26.3 58.8 58.8 58.8h274.6c32.5 0 58.8-26.3 58.8-58.8v-146.5c0-32.5-26.4-58.8-58.8-58.8z"/><path d="m1156.6 191.5h-274.6c-32.5 0-58.8 26.3-58.8 58.8v146.5c0 32.5 26.3 58.8 58.8 58.8h274.6c32.5 0 58.8-26.3 58.8-58.8v-146.5c0-32.4-26.3-58.8-58.8-58.8z"/><path d="m3627.7 1.7-396.5-.4c-44.6 0-86 13.8-120.2 37.4-6.3-21.4-26-37.2-49.5-37.2l-438.8-.2c-44.6 0-85.9 13.8-120.1 37.3-6.4-21.4-26-37.1-49.4-37.1l-651.4-.4v393.8h-190.9v-341.2c0-28.6-23.2-51.8-51.8-51.8h-223.8v34.3c-33.7-22.5-74.1-35.7-117.5-35.7l-396.6-.5c-44.8 0-86.4 14-120.7 37.7-6.7-20.9-26-36.2-49.2-36.2l-438.7-.2c-117.3 0-212.6 95.3-212.6 212.5v224.4c0 113.2 88.5 205.7 200 212.1l328.2 568.4h256.1l244.2-422.9v371.2c0 28.6 23.2 51.8 51.8 51.8h139.9 84.6 451.9c49.3 0 94.7-16.7 131-44.8 3.5 25.3 24.9 44.8 51.1 44.8h223.8v-41.6c35.6 27 80 43 128 43h396.3c48.4 0 93.1-16.3 128.9-43.7 4.5 24.1 25.5 42.3 50.9 42.3h223.8v-395.6h270.2v341.9c0 28.4 22.8 51.5 51.2 51.8l224.3 2.6v-435.9c0-50.3-17.5-96.4-46.7-132.8h37.9c117.2 0 212.5-95.3 212.5-212.5v-224c.1-117.2-95.2-212.5-212.2-212.6zm-2231.5 61.1h153.6v334.3c0 32.5 26.3 58.8 58.8 58.8h227v132.9h-287.8c-83.7 0-151.6-67.9-151.6-151.6zm-1335.2 375.4v-224.4c0-83.8 67.9-151.6 151.7-151.5l429.5.2v130.4h-368.8c-32.5 0-58.8 26.3-58.8 58.8v146.5c0 32.5 26.3 58.8 58.8 58.8h368.8v132.9h-429.7c-83.7-.1-151.5-68-151.5-151.7zm733.1 212.6-137.8 238.6-137.8-238.6zm-45 507h-185.7l-303-524.8h177.4l218.5 378.4 218.4-378.4h177.4zm72.1-569.3c-83.7 0-151.6-67.9-151.6-151.6v-224.4c0-83.8 67.9-151.6 151.7-151.6l396.3.4c83.6.1 151.4 67.9 151.4 151.6v224c0 83.7-67.9 151.6-151.6 151.6zm422.7 569.3h-154.4v-524.8h154.4zm666.5-153.6c0 84.8-68.8 153.6-153.6 153.6h-475.5v-130.7h442.3c18.3 0 33.2-14.8 33.2-33.2 0-18.3-14.8-33.2-33.2-33.2h-288.7c-84.8 0-153.6-68.8-153.6-153.6v-20.5c0-84.8 68.8-153.6 153.6-153.6h458.6v130.7h-425.4c-18.3 0-33.2 14.9-33.2 33.2s14.8 33.2 33.2 33.2h288.7c84.8 0 153.6 68.8 153.6 153.6zm-47.7-566v-376.1l581.2.4v130.4h-387.2c-22.3 0-40.4 18.1-40.4 40.4s18.1 40.4 40.4 40.4h350.5v104.7h-351.6c-21.7 0-39.3 17.6-39.3 39.3s17.6 39.3 39.3 39.3h388.3v132.9h-429.7c-83.6-.1-151.5-68-151.5-151.7zm239 719.6h-153.7v-524.8h153.6v524.8zm736.8-150.2c0 83.7-67.9 151.6-151.6 151.6h-396.3c-83.7 0-151.6-67.9-151.6-151.6v-224.4c0-83.8 67.9-151.6 151.7-151.6l396.3.4c83.6.1 151.4 67.9 151.4 151.6v224zm-215.8-417.8c-83.7 0-151.6-67.9-151.6-151.6v-224.4c0-83.8 67.9-151.6 151.7-151.6l429.5.2v130.4h-368.8c-32.5 0-58.8 26.3-58.8 58.8v146.5c0 32.5 26.3 58.8 58.8 58.8h368.8v132.9zm952.5 568-153.6-1.7v-335.1c0-32.5-26.3-58.8-58.8-58.8h-274.6c-32.5 0-58.8 26.3-58.8 58.8v336.8h-153.6v-348-26.6-151.6h148.3v.2c1.2 0 2.3-.2 3.4-.2l396.3.4c83.6.1 151.4 67.9 151.4 151.6zm203.8-719.6c0 83.7-67.9 151.6-151.6 151.6h-396.3c-83.7 0-151.6-67.9-151.6-151.6v-224.4c0-83.8 67.9-151.6 151.7-151.6l396.3.4c83.6.1 151.4 67.9 151.4 151.6v224z"/><path d="m3566.6 192.8h-274.6c-32.5 0-58.8 26.3-58.8 58.8v146.5c0 32.5 26.3 58.8 58.8 58.8h274.6c32.5 0 58.8-26.3 58.8-58.8v-146.5c0-32.5-26.3-58.8-58.8-58.8z"/></g></svg>

<?xml version="1.0" encoding="UTF-8" standalone="no"?>
<svg
   enable-background="new 0 0 3840 1220.2"
   viewBox="0 0 3840 1220"
   version="1.1"
   id="svg7"
   sodipodi:docname="colecovision.svg"
   width="3840"
   height="1220"
   inkscape:version="1.3.2 (091e20e, 2023-11-25)"
   xmlns:inkscape="http://www.inkscape.org/namespaces/inkscape"
   xmlns:sodipodi="http://sodipodi.sourceforge.net/DTD/sodipodi-0.dtd"
   xmlns="http://www.w3.org/2000/svg"
   xmlns:svg="http://www.w3.org/2000/svg">
  <defs
     id="defs7" />
  <sodipodi:namedview
     id="namedview7"
     pagecolor="#ffffff"
     bordercolor="#000000"
     borderopacity="0.25"
     inkscape:showpageshadow="2"
     inkscape:pageopacity="0.0"
     inkscape:pagecheckerboard="0"
     inkscape:deskcolor="#d1d1d1"
     inkscape:zoom="0.19341092"
     inkscape:cx="1918.1957"
     inkscape:cy="610.09998"
     inkscape:window-width="1312"
     inkscape:window-height="449"
     inkscape:window-x="0"
     inkscape:window-y="23"
     inkscape:window-maximized="0"
     inkscape:current-layer="svg7" />
  <g
     id="g8"
     transform="scale(1.000026,0.99983609)">
    <g
       fill="#999999"
       id="g3">
      <path
         d="M 1129.3,369.5 V 277.6 H 909.4 v 91.9 z"
         id="path1" />
      <path
         d="m 3539.3,370.8 v -91.9 h -219.9 v 91.9 z"
         id="path2" />
      <path
         d="m 2598.8,940.2 v -91.9 h -219.9 v 91.9 z"
         id="path3" />
    </g>
    <g
       fill="#ffffff"
       id="g7">
      <path
         d="m 2626.1,762.2 h -274.6 c -32.5,0 -58.8,26.3 -58.8,58.8 v 146.5 c 0,32.5 26.3,58.8 58.8,58.8 h 274.6 c 32.5,0 58.8,-26.3 58.8,-58.8 V 821 c 0,-32.5 -26.4,-58.8 -58.8,-58.8 z"
         id="path4" />
      <path
         d="M 1156.6,191.5 H 882 c -32.5,0 -58.8,26.3 -58.8,58.8 v 146.5 c 0,32.5 26.3,58.8 58.8,58.8 h 274.6 c 32.5,0 58.8,-26.3 58.8,-58.8 V 250.3 c 0,-32.4 -26.3,-58.8 -58.8,-58.8 z"
         id="path5" />
      <path
         d="M 3627.7,1.7 3231.2,1.3 c -44.6,0 -86,13.8 -120.2,37.4 -6.3,-21.4 -26,-37.2 -49.5,-37.2 L 2622.7,1.3 c -44.6,0 -85.9,13.8 -120.1,37.3 -6.4,-21.4 -26,-37.1 -49.4,-37.1 L 1801.8,1.1 V 394.9 H 1610.9 V 53.7 c 0,-28.6 -23.2,-51.8 -51.8,-51.8 H 1335.3 V 36.2 C 1301.6,13.7 1261.2,0.5 1217.8,0.5 L 821.2,0 C 776.4,0 734.8,14 700.5,37.7 693.8,16.8 674.5,1.5 651.3,1.5 L 212.6,1.3 C 95.3,1.3 0,96.6 0,213.8 v 224.4 c 0,113.2 88.5,205.7 200,212.1 l 328.2,568.4 H 784.3 L 1028.5,795.8 V 1167 c 0,28.6 23.2,51.8 51.8,51.8 h 139.9 84.6 451.9 c 49.3,0 94.7,-16.7 131,-44.8 3.5,25.3 24.9,44.8 51.1,44.8 h 223.8 v -41.6 c 35.6,27 80,43 128,43 h 396.3 c 48.4,0 93.1,-16.3 128.9,-43.7 4.5,24.1 25.5,42.3 50.9,42.3 h 223.8 V 823.2 h 270.2 v 341.9 c 0,28.4 22.8,51.5 51.2,51.8 l 224.3,2.6 V 783.6 c 0,-50.3 -17.5,-96.4 -46.7,-132.8 h 37.9 c 117.2,0 212.5,-95.3 212.5,-212.5 v -224 C 3840,97.1 3744.7,1.8 3627.7,1.7 Z M 1396.2,62.8 h 153.6 v 334.3 c 0,32.5 26.3,58.8 58.8,58.8 h 227 v 132.9 h -287.8 c -83.7,0 -151.6,-67.9 -151.6,-151.6 z M 61,438.2 V 213.8 C 61,130 128.9,62.2 212.7,62.3 l 429.5,0.2 V 192.9 H 273.4 c -32.5,0 -58.8,26.3 -58.8,58.8 v 146.5 c 0,32.5 26.3,58.8 58.8,58.8 H 642.2 V 589.9 H 212.5 C 128.8,589.8 61,521.9 61,438.2 Z M 794.1,650.8 656.3,889.4 518.5,650.8 Z m -45,507 H 563.4 L 260.4,633 H 437.8 L 656.3,1011.4 874.7,633 h 177.4 z m 72.1,-569.3 c -83.7,0 -151.6,-67.9 -151.6,-151.6 V 212.5 c 0,-83.8 67.9,-151.6 151.7,-151.6 l 396.3,0.4 c 83.6,0.1 151.4,67.9 151.4,151.6 v 224 c 0,83.7 -67.9,151.6 -151.6,151.6 z m 422.7,569.3 H 1089.5 V 633 h 154.4 z m 666.5,-153.6 c 0,84.8 -68.8,153.6 -153.6,153.6 h -475.5 v -130.7 h 442.3 c 18.3,0 33.2,-14.8 33.2,-33.2 0,-18.3 -14.8,-33.2 -33.2,-33.2 h -288.7 c -84.8,0 -153.6,-68.8 -153.6,-153.6 v -20.5 c 0,-84.8 68.8,-153.6 153.6,-153.6 h 458.6 v 130.7 h -425.4 c -18.3,0 -33.2,14.9 -33.2,33.2 0,18.3 14.8,33.2 33.2,33.2 h 288.7 c 84.8,0 153.6,68.8 153.6,153.6 z m -47.7,-566 V 62.1 l 581.2,0.4 v 130.4 h -387.2 c -22.3,0 -40.4,18.1 -40.4,40.4 0,22.3 18.1,40.4 40.4,40.4 h 350.5 v 104.7 h -351.6 c -21.7,0 -39.3,17.6 -39.3,39.3 0,21.7 17.6,39.3 39.3,39.3 h 388.3 v 132.9 h -429.7 c -83.6,-0.1 -151.5,-68 -151.5,-151.7 z m 239,719.6 H 1948 V 633 h 153.6 v 524.8 z m 736.8,-150.2 c 0,83.7 -67.9,151.6 -151.6,151.6 h -396.3 c -83.7,0 -151.6,-67.9 -151.6,-151.6 V 783.2 c 0,-83.8 67.9,-151.6 151.7,-151.6 L 2687,632 c 83.6,0.1 151.4,67.9 151.4,151.6 v 224 z M 2622.7,589.8 c -83.7,0 -151.6,-67.9 -151.6,-151.6 V 213.8 c 0,-83.8 67.9,-151.6 151.7,-151.6 l 429.5,0.2 v 130.4 h -368.8 c -32.5,0 -58.8,26.3 -58.8,58.8 v 146.5 c 0,32.5 26.3,58.8 58.8,58.8 h 368.8 v 132.9 z m 952.5,568 -153.6,-1.7 V 821 c 0,-32.5 -26.3,-58.8 -58.8,-58.8 h -274.6 c -32.5,0 -58.8,26.3 -58.8,58.8 v 336.8 h -153.6 v -348 -26.6 -151.6 h 148.3 v 0.2 c 1.2,0 2.3,-0.2 3.4,-0.2 l 396.3,0.4 c 83.6,0.1 151.4,67.9 151.4,151.6 z M 3779,438.2 c 0,83.7 -67.9,151.6 -151.6,151.6 h -396.3 c -83.7,0 -151.6,-67.9 -151.6,-151.6 V 213.8 c 0,-83.8 67.9,-151.6 151.7,-151.6 l 396.3,0.4 c 83.6,0.1 151.4,67.9 151.4,151.6 v 224 z"
         id="path6" />
      <path
         d="M 3566.6,192.8 H 3292 c -32.5,0 -58.8,26.3 -58.8,58.8 v 146.5 c 0,32.5 26.3,58.8 58.8,58.8 h 274.6 c 32.5,0 58.8,-26.3 58.8,-58.8 V 251.6 c 0,-32.5 -26.3,-58.8 -58.8,-58.8 z"
         id="path7" />
    </g>
  </g>
</svg>
